common/src/main/resources/glyphs/javaee/javaee/ejbModule.svg

<svg xmlns="http://www.w3.org/2000/svg" width="16" height="16" fill="#8D6E63" data-big="true" viewBox="0 0 24 24"><path d="m12 10-4 4h3v6h2v-6h3m3-10H5a2 2 0 0 0-2 2v12a2 2 0 0 0 2 2h4v-2H5V8h14v10h-4v2h4a2 2 0 0 0 2-2V6a2 2 0 0 0-2-2"/></svg>

<!--
  - The MIT License (MIT)
  -
  - Copyright (c) 2015-2024 Elior "Mallowigi" Boukhobza
  -
  - Permission is hereby granted, free of charge, to any person obtaining a copy
  - of this software and associated documentation files (the "Software"), to deal
  - in the Software without restriction, including without limitation the rights
  - to use, copy, modify, merge, publish, distribute, sublicense, and/or sell
  - copies of the Software, and to permit persons to whom the Software is
  - furnished to do so, subject to the following conditions:
  -
  - The above copyright notice and this permission notice shall be included in all
  - copies or substantial portions of the Software.
  -
  - THE SOFTWARE IS PROVIDED "AS IS", WITHOUT WARRANTY OF ANY KIND, EXPRESS OR
  - IMPLIED, INCLUDING BUT NOT LIMITED TO THE WARRANTIES OF MERCHANTABILITY,
  - FITNESS FOR A PARTICULAR PURPOSE AND NONINFRINGEMENT. IN NO EVENT SHALL THE
  - AUTHORS OR COPYRIGHT HOLDERS BE LIABLE FOR ANY CLAIM, DAMAGES OR OTHER
  - LIABILITY, WHETHER IN AN ACTION OF CONTRACT, TORT OR OTHERWISE, ARISING FROM,
  - OUT OF OR IN CONNECTION WITH THE SOFTWARE OR THE USE OR OTHER DEALINGS IN THE
  - SOFTWARE.
  -->


<svg data-big="true" xmlns="http://www.w3.org/2000/svg" version="1.1" width="16px" height="16px" viewBox="0 0 24 24"
     fill="#8D6E63">
  <path
    d="M12,10L8,14H11V20H13V14H16M19,4H5C3.89,4 3,4.9 3,6V18A2,2 0 0,0 5,20H9V18H5V8H19V18H15V20H19A2,2 0 0,0 21,18V6A2,2 0 0,0 19,4Z"/>
</svg>
